configuração/local/ags/assets/hicolor/scalable/apps/arrow-down-symbolic.svg

<?xml version="1.0" encoding="UTF-8" standalone="no"?>
<!-- Uploaded to: SVG Repo, www.svgrepo.com, Generator: SVG Repo Mixer Tools -->

<svg
   width="800"
   height="800"
   viewBox="0 0 24 24"
   fill="none"
   version="1.1"
   id="svg1"
   xmlns="http://www.w3.org/2000/svg"
   xmlns:svg="http://www.w3.org/2000/svg">
  <defs
     id="defs1" />
  <path
     d="m 5.70711,9.71069 c -0.39053,0.39051 -0.39053,1.02371 0,1.41421 l 4.89219,4.8874 c 0.7812,0.7804 2.047,0.7801 2.8278,-6e-4 l 4.8903,-4.8904 c 0.3906,-0.3905 0.3906,-1.0237 0,-1.41422 -0.3905,-0.39053 -1.0237,-0.39053 -1.4142,0 l -4.1856,4.18562 c -0.3905,0.3906 -1.0237,0.3905 -1.4142,0 L 7.12132,9.71069 c -0.39052,-0.39053 -1.02369,-0.39053 -1.41421,0 z"
     fill="#0F0F0F"
     id="path1"
     style="fill:#000000;fill-opacity:1" />
</svg>

<?xml version="1.0" encoding="utf-8"?><!-- Uploaded to: SVG Repo, www.svgrepo.com, Generator: SVG Repo Mixer Tools -->
<svg width="800px" height="800px" viewBox="0 0 24 24" fill="none" xmlns="http://www.w3.org/2000/svg">
<path d="M5.70711 9.71069C5.31658 10.1012 5.31658 10.7344 5.70711 11.1249L10.5993 16.0123C11.3805 16.7927 12.6463 16.7924 13.4271 16.0117L18.3174 11.1213C18.708 10.7308 18.708 10.0976 18.3174 9.70708C17.9269 9.31655 17.2937 9.31655 16.9032 9.70708L12.7176 13.8927C12.3271 14.2833 11.6939 14.2832 11.3034 13.8927L7.12132 9.71069C6.7308 9.32016 6.09763 9.32016 5.70711 9.71069Z" fill="#0F0F0F"/>
</svg>
